X:50
T:Cooley's reel
R:Reel
B:Fiddler's Fakebook
S:My arrangement from various sources
Z:Transcription, arrangement, chords:Mike Long
M:C|
L:1/8
K:D
D2|\
"Em"EBBA B2EB|B2AB dBAG|"D"(3(FED) AD BDAD|(3(FED) FA dAFD|\
"Em"EBBA B2EB|
B2AB defg|"D"afec "G"dBAF|"D"DEFD "Em"E2:|\
|:gf|\
"Em"eB~B2 egfg|eB~B2 gedB|
"D"(3(ABA) FA DAFA|BAFA defg|\
"Em"eB~B2 eBgB|eB~B2 defg|"D"afec "G"dBAF|"D"DEFD "Em"E2:|
